X:0726
T:The Milliner's House.
M:C
L:1/8
Q:1/2=96
I: :: :|
Z:Jack Campin * www.campin.me.uk * 2009
K:G
 d/>c/|:cBdB BAdA|AGFA GFED|cAcc BGBB|AdAF D2
c>d   | cBdB BAdA|AGFA GFED|EDED c2B2|BAGF G4 :|
        B3 c AFGA|B3 c AFGA|BGcG dGeG|edcB B2A2|
        B3 c AFGA|B3 c AFGA|gfed edBA|BdFA G4 :|

